brandFactory_export/1.Light/Insecto _1Light.svg

<?xml version="1.0" encoding="UTF-8"?>
<svg width="24px" height="24px" viewBox="0 0 24 24" version="1.1" xmlns="http://www.w3.org/2000/svg" xmlns:xlink="http://www.w3.org/1999/xlink">
    <title>1.Light/Insecto _1Light</title>
    <g id="Symbols" stroke="none" stroke-width="1" fill="none" fill-rule="evenodd">
        <g id="1.Light/Insecto-_1Light" fill="#5CB615" fill-rule="nonzero">
            <path d="M12.3495798,21.287395 C16.994958,21.287395 18.4840336,19.4386555 18.4840336,13.6705882 C18.4840336,10.0504202 17.8789916,8.06722689 16.4571429,7.04201681 C15.5394958,6.37647059 14.194958,6.05378151 12.3495798,6.05378151 C10.4907563,6.05378151 9.13613445,6.38319328 8.21512605,7.05882353 C6.81344538,8.0907563 6.21512605,10.0672269 6.21512605,13.6705882 C6.21512605,19.4386555 7.70420168,21.287395 12.3495798,21.287395 Z M12.3596639,2.05042017 C8.61512605,2.05042017 7.93277311,2.90420168 7.93277311,4.58151261 C7.93277311,5.12941176 8.03361345,5.54957983 8.21848739,5.88571429 C9.26722689,5.33109244 10.6151261,5.04537815 12.3495798,5.04537815 C14.097479,5.04537815 15.4487395,5.33781513 16.497479,5.89579832 C16.6857143,5.55630252 16.7865546,5.13277311 16.7865546,4.58151261 C16.7865546,2.90084034 16.1008403,2.05042017 12.3596639,2.05042017 L12.3596639,2.05042017 Z M22.1579832,12.194958 C22.4470588,12.194958 22.6823529,12.4168067 22.6823529,12.6957983 L22.6823529,14.7092437 C22.6756303,14.9915966 22.4403361,15.2201681 22.1579832,15.2134454 C21.8756303,15.2201681 21.6403361,14.994958 21.6336134,14.7092437 L21.6336134,13.2 L19.5226891,13.2 C19.5260504,13.3579832 19.5361345,13.502521 19.5361345,13.6672269 C19.5361345,15.7008403 19.3579832,17.4352941 18.8067227,18.810084 L21.6302521,19.6336134 C21.8588235,19.7008403 22.0134454,19.912605 22,20.1411765 L21.8319328,23.1764706 C21.8117647,23.4487395 21.5831933,23.6571429 21.307563,23.6538216 L21.2806723,23.6538216 C20.9983193,23.6436975 20.7764706,23.4084034 20.7831933,23.1260504 L20.7831933,23.1226891 L20.9310924,20.4806723 L18.3361345,19.7310924 C17.3142857,21.3747899 15.4991597,22.2991597 12.3462185,22.2991597 C9.18655462,22.2991597 7.37142857,21.3714286 6.34957983,19.7176471 L3.70756303,20.4840336 L3.85210084,23.1260504 C3.86218487,23.4084034 3.64369748,23.6436975 3.36134454,23.6538216 L3.32773109,23.6538216 C3.05546218,23.6571429 2.82689076,23.4487395 2.80672269,23.1764706 L2.63865546,20.1411765 C2.62857143,19.9058824 2.78319328,19.6941176 3.01176471,19.6336134 L5.88571429,18.7966387 C5.33781513,17.4285714 5.16302521,15.697479 5.16302521,13.6705882 C5.16302521,13.5058824 5.17310924,13.3613445 5.17647059,13.2033613 L3.06554622,13.2033613 L3.06554622,14.712605 C3.05882353,14.994958 2.82689076,15.2235294 2.54117647,15.2168067 C2.25882353,15.2235294 2.02352941,14.9983193 2.01680672,14.712605 L2.01680672,12.6991597 C2.01680672,12.4201681 2.25210084,12.194958 2.54117647,12.194958 L5.20672269,12.194958 C5.32773109,10.0504202 5.72773109,8.51428571 6.47058824,7.41848739 L3.01512605,6.41008403 C2.78655462,6.34957983 2.63193277,6.13781513 2.64201681,5.90252101 L2.81008403,2.86722689 C2.82689076,2.58823529 3.08907563,2.35966387 3.36134454,2.38991597 C3.65042017,2.40336134 3.87226891,2.64201681 3.85882353,2.9210084 L3.71428571,5.56302521 L7.11596639,6.55462185 C7.14285714,6.56134454 7.16638655,6.58151261 7.18991597,6.59495798 L7.34789916,6.45378151 C7.04537815,5.95294118 6.88067227,5.34117647 6.88067227,4.57815126 C6.88067227,2.36638655 8.12436975,1.4789916 10.1378151,1.17647059 L9.83865546,0.890756303 C9.64033613,0.705882353 9.63361345,0.393277311 9.81848739,0.198319328 L9.83865546,0.178151261 C10.0470588,-0.0168067227 10.3731092,-0.0168067227 10.5815126,0.178151261 L11.502521,1.06218487 C11.7815126,1.05210084 12.0605042,1.03865546 12.3563025,1.03865546 C12.6453782,1.03865546 12.9109244,1.05210084 13.1831933,1.05882353 L14.1042017,0.178151261 C14.312605,-0.0168067227 14.6386555,-0.0168067227 14.8470588,0.178151261 C15.0521008,0.376470588 15.0521008,0.692436975 14.8470588,0.890756303 L14.5512605,1.17310924 C16.5815126,1.47226891 17.8319328,2.35966387 17.8319328,4.57815126 C17.8319328,5.34453782 17.6672269,5.95966387 17.3579832,6.46386555 C17.3983193,6.50084034 17.4420168,6.53445378 17.4823529,6.57142857 C17.4957983,6.56470588 17.5058824,6.55462185 17.5226891,6.5512605 L20.9277311,5.55966387 L20.7798319,2.91764706 C20.7697479,2.63529412 20.9915966,2.39663866 21.2739496,2.38655462 L21.2773109,2.38655462 C21.5529412,2.35966387 21.7983193,2.56134454 21.8252101,2.83697479 C21.8252101,2.84705882 21.8252101,2.85378151 21.8285714,2.86386555 L21.9966387,5.89915966 C22.0067227,6.13445378 21.8521008,6.34621849 21.6268908,6.40672269 L18.2252101,7.39831933 C18.9781513,8.4907563 19.3781513,10.0134454 19.492437,12.1882353 L22.1579832,12.194958 Z M12.2655462,8.15798319 C12.5546218,8.15798319 12.789916,8.38319328 12.789916,8.66218487 L12.789916,18.3831933 C12.7831933,18.6655462 12.5512605,18.8941176 12.2655462,18.887395 C11.9831933,18.8941176 11.7478992,18.6689076 11.7411765,18.3831933 L11.7411765,8.66218487 C11.7411765,8.38319328 11.9764706,8.15798319 12.2655462,8.15798319 Z" id="Insecto-_1Light"></path>
        </g>
    </g>
</svg>

<svg width="24" height="24" viewBox="0 0 24 24" xmlns="http://www.w3.org/2000/svg"><path d="M12.35 21.287c4.645 0 6.134-1.848 6.134-7.616 0-3.62-.605-5.604-2.027-6.629-.918-.666-2.262-.988-4.107-.988-1.86 0-3.214.33-4.135 1.005-1.402 1.032-2 3.008-2 6.612 0 5.768 1.49 7.616 6.135 7.616zm.01-19.237c-3.745 0-4.427.854-4.427 2.532 0 .547.1.968.285 1.304 1.05-.555 2.397-.84 4.132-.84 1.747 0 3.099.292 4.147.85.189-.34.29-.763.29-1.314 0-1.681-.686-2.532-4.427-2.532zm9.798 10.145c.29 0 .524.222.524.5v2.014a.517.517 0 01-.524.504.514.514 0 01-.524-.504V13.2h-2.111c.003.158.013.303.013.467 0 2.034-.178 3.768-.73 5.143l2.824.824a.507.507 0 01.37.507l-.168 3.035a.516.516 0 01-.524.478h-.027a.516.516 0 01-.498-.528v-.003l.148-2.642-2.595-.75c-1.022 1.644-2.837 2.568-5.99 2.568-3.16 0-4.975-.928-5.996-2.581l-2.642.766.144 2.642a.508.508 0 01-.49.528h-.034a.516.516 0 01-.521-.478l-.168-3.035a.503.503 0 01.373-.507l2.874-.837c-.548-1.368-.723-3.1-.723-5.126 0-.165.01-.31.013-.468h-2.11v1.51a.514.514 0 01-.525.504.514.514 0 01-.524-.504v-2.014c0-.279.235-.504.524-.504h2.666c.12-2.145.52-3.68 1.264-4.777L3.015 6.41a.503.503 0 01-.373-.507l.168-3.036a.517.517 0 01.551-.477c.29.013.511.252.498.531l-.145 2.642 3.402.992c.027.006.05.027.074.04l.158-.141c-.303-.501-.467-1.113-.467-1.876 0-2.212 1.243-3.099 3.257-3.402l-.3-.285a.49.49 0 01-.02-.693l.02-.02a.545.545 0 01.744 0l.92.884c.28-.01.559-.023.854-.023.29 0 .555.013.827.02l.921-.88a.545.545 0 01.743 0 .49.49 0 010 .712l-.296.282c2.03.3 3.28 1.187 3.28 3.405 0 .767-.164 1.382-.473 1.886.04.037.084.07.124.107.014-.006.024-.016.04-.02l3.406-.991-.148-2.642a.514.514 0 01.494-.531h.003a.502.502 0 01.552.477l.168 3.035a.503.503 0 01-.37.508l-3.402.991c.753 1.093 1.153 2.615 1.267 4.79l2.666.007zm-9.892-4.037c.289 0 .524.225.524.504v9.721a.514.514 0 01-.524.504.514.514 0 01-.525-.504v-9.72c0-.28.235-.505.525-.505z" fill="#5CB615" fill-rule="nonzero"/></svg>
